img/offer/icon2.svg

<svg width="54" height="67" viewBox="0 0 54 67" fill="none" xmlns="http://www.w3.org/2000/svg">
<path fill-rule="evenodd" clip-rule="evenodd" d="M25.6852 0.0816508C25.0133 0.249039 24.0967 0.718852 22.7436 1.58945C20.6088 2.96287 20.5751 2.97152 17.4714 2.94192C14.9259 2.91756 14.7259 2.93354 13.9762 3.22129C12.7441 3.69438 11.9085 4.6175 10.7907 6.74024C9.52263 9.14837 9.2701 9.40247 6.98321 10.5716C5.51492 11.3221 4.90836 11.7153 4.27845 12.325C3.06268 13.5016 2.96249 13.8794 2.95732 17.3021C2.95267 20.4744 3.00907 20.2637 1.57395 22.4666C0.157415 24.6411 0.0517883 24.919 0.0517883 26.4704C0.0517883 28.0241 0.174268 28.3463 1.56374 30.4496C2.995 32.6161 2.95028 32.4477 2.95626 35.7043L2.96143 38.5203L3.34864 39.348C3.89031 40.506 4.76359 41.2282 7.02195 42.3863C9.00763 43.4044 9.54306 43.858 10.2304 45.1047L10.5902 45.757L6.87532 52.5011C2.86536 59.7811 2.86483 59.7822 3.42056 60.6816C3.92149 61.4926 4.23068 61.5649 7.50723 61.6376L10.4607 61.7031L12.0988 64.0607C13.0407 65.4165 13.9227 66.5435 14.1743 66.713C15.0224 67.2844 16.1146 66.979 16.7334 65.9973C16.9052 65.7246 18.6479 62.5839 20.6059 59.0181C22.5639 55.4523 24.207 52.4885 24.2571 52.4319C24.3072 52.3754 24.6417 52.4593 25.0004 52.6186C25.933 53.0325 27.6465 53.0358 28.5624 52.6254C28.922 52.4643 29.2565 52.378 29.3056 52.4337C29.3548 52.4892 30.9939 55.4523 32.9481 59.0181C34.9022 62.5839 36.6452 65.7248 36.8213 65.9977C37.4562 66.9818 38.5396 67.2838 39.3867 66.713C39.6383 66.5435 40.5203 65.4165 41.4622 64.0607L43.1004 61.7031L46.0538 61.6376C49.3303 61.5649 49.6395 61.4926 50.1405 60.6816C50.6417 59.8704 50.5247 59.4632 48.9888 56.6719C48.2124 55.2609 47.4865 54.0033 47.3759 53.8773C47.1034 53.5669 46.2641 53.573 45.9758 53.8876C45.5639 54.3369 45.7167 54.8383 46.9488 57.0803C47.6049 58.2739 48.1785 59.3456 48.2237 59.4617C48.2973 59.6511 48.0543 59.6738 45.8699 59.6809C43.0177 59.6899 42.2879 59.783 41.8443 60.1944C41.6662 60.3596 40.8551 61.4591 40.0418 62.6378C39.2285 63.8166 38.5231 64.7811 38.4742 64.7811C38.3137 64.7811 31.0094 51.3932 31.0762 51.2215C31.112 51.1293 31.6351 50.8098 32.2385 50.5117L33.3356 49.9697L35.93 49.9953C39.3452 50.0291 40.1702 49.7968 41.3545 48.4689L41.8888 47.8696L42.7227 49.4163C43.6788 51.1898 43.9884 51.5524 44.5462 51.5524C44.9866 51.5524 45.4908 51.0445 45.4908 50.6008C45.4908 50.4571 44.9241 49.3078 44.2316 48.0469L42.9723 45.7544L43.3313 45.1034C44.0172 43.8595 44.5545 43.4039 46.529 42.3914C48.7835 41.2354 49.5719 40.5866 50.1626 39.401L50.5996 38.5239L50.6024 35.7061C50.6054 32.449 50.5578 32.6287 51.9973 30.4496C53.3868 28.3463 53.5092 28.0241 53.5092 26.4704C53.5092 24.9168 53.3868 24.5946 51.9973 22.4912C50.5655 20.3238 50.6083 20.4836 50.6037 17.3021C50.5987 13.9166 50.4949 13.5284 49.2738 12.3248C48.6471 11.707 48.0681 11.3287 46.5684 10.5574C44.2685 9.3747 44.0328 9.13777 42.7703 6.74024C41.6525 4.6175 40.8169 3.69438 39.5848 3.22129C38.8351 2.93354 38.6351 2.91756 36.0896 2.94192C32.9715 2.97165 32.9808 2.97414 30.731 1.53562C28.9854 0.41957 28.1607 0.0747091 27.0844 0.0109235C26.5889 -0.0184153 25.9593 0.013412 25.6852 0.0816508ZM27.8075 2.15134C28.155 2.28284 29.1535 2.84421 30.0264 3.3989C32.2992 4.84304 32.7052 4.94625 35.9366 4.90146C39.5234 4.85169 39.5875 4.88941 41.2076 8.00272C42.4377 10.3667 43.1568 11.0629 45.7262 12.3767C48.6151 13.8541 48.7605 14.1049 48.6209 17.3675C48.5672 18.6219 48.5874 19.6727 48.6738 20.1175C48.8536 21.0429 49.4 22.1885 50.2649 23.4536C52.0229 26.0251 52.0277 26.9084 50.297 29.4406C48.7229 31.7435 48.4942 32.5805 48.6215 35.5733C48.7599 38.8294 48.589 39.1157 45.5997 40.6345C43.2008 41.8534 42.4058 42.6211 41.2796 44.8071C39.6124 48.0433 39.6099 48.0448 35.609 48.0669C32.2091 48.0858 32.323 48.0539 29.7085 49.7133C26.9806 51.4445 26.5306 51.4427 23.8048 49.6883C23.0022 49.1718 21.985 48.5989 21.5442 48.4154C20.7735 48.0943 20.6337 48.081 17.8894 48.0679C15.2371 48.0554 14.9962 48.0343 14.4708 47.7697C13.7626 47.4132 13.305 46.7941 12.2814 44.8071C11.1491 42.6092 10.352 41.8386 7.96543 40.6341C6.99541 40.1445 5.97153 39.5276 5.69021 39.2632C4.94631 38.564 4.83551 38.0194 4.93954 35.5733C5.0668 32.5805 4.83816 31.7435 3.26398 29.4406C1.53335 26.9084 1.53813 26.0251 3.29609 23.4536C4.16101 22.1885 4.70746 21.0429 4.88726 20.1175C4.97365 19.6727 4.99382 18.6219 4.94007 17.3675C4.80048 14.1049 4.94591 13.8541 7.83485 12.3767C10.3751 11.0777 11.1414 10.3464 12.2814 8.1337C13.3014 6.15373 13.7599 5.53146 14.4712 5.16158C15.0094 4.88168 15.1625 4.86911 17.6244 4.90238C20.8576 4.94599 21.2788 4.83911 23.545 3.39916C25.9396 1.87747 26.5847 1.68873 27.8075 2.15134ZM24.7237 6.24777C20.2607 6.70723 16.0216 8.59238 12.9065 11.5028C11.8585 12.482 11.7753 12.5974 11.8122 13.0202C11.863 13.602 12.3951 14.0368 12.9024 13.9112C13.0914 13.8643 13.7085 13.409 14.2741 12.8994C16.8012 10.6219 19.7045 9.17483 23.1977 8.45158C24.9995 8.07856 28.1047 8.04097 29.9286 8.37011C32.522 8.83809 35.2352 9.93188 37.3732 11.3716C39.5862 12.8616 42.1714 15.8089 43.4297 18.2764C45.4641 22.2659 45.9082 27.2035 44.626 31.5785C43.2017 36.4377 39.6563 40.6203 35.0278 42.9017C33.5875 43.6117 31.5457 44.2809 29.9652 44.5609C28.2849 44.8586 25.2816 44.857 23.5958 44.5574C17.0156 43.3879 11.4762 38.7742 9.2701 32.6263C8.27979 29.8661 7.95335 26.546 8.3947 23.7199C8.66819 21.9684 9.45137 19.5811 10.2583 18.0389C10.9023 16.8083 10.9985 16.2249 10.6142 15.8816C10.2924 15.5941 9.49649 15.6012 9.22884 15.8941C8.86273 16.2947 7.69911 18.7139 7.28828 19.9287C6.48573 22.3013 6.29 23.5841 6.29 26.4704C6.29 28.7041 6.33445 29.2926 6.59162 30.4652C7.43531 34.3124 9.2429 37.7162 11.8854 40.4336C15.1472 43.7879 19.0557 45.807 23.7948 46.5859C24.9878 46.782 28.5637 46.7831 29.7662 46.5876C34.5101 45.8168 38.454 43.7714 41.7068 40.3947C44.3697 37.6304 46.1188 34.3183 46.9805 30.4082C47.2252 29.2979 47.271 28.6767 47.271 26.4704C47.271 24.2413 47.2263 23.6459 46.9706 22.4756C45.8769 17.4689 43.1257 13.2109 39.0173 10.1661C34.9481 7.15033 29.7626 5.72884 24.7237 6.24777ZM25.5199 13.2249C25.0344 13.5078 24.8365 13.8284 23.1977 16.9898L21.4063 20.4455L17.7571 20.9743C15.4877 21.3031 13.9475 21.5879 13.6836 21.7272C12.6244 22.2868 12.1179 23.8209 12.6544 24.845C12.7831 25.0906 14.0805 26.441 15.5374 27.8457L18.1863 30.3997L17.5423 34.1493L16.8984 37.8989L17.1618 38.5234C17.5491 39.4409 18.2267 39.9305 19.2062 40.0004C20.0736 40.0623 20.1725 40.02 24.6584 37.6684C25.7572 37.0924 26.7094 36.6211 26.7745 36.6211C26.8396 36.6211 28.3754 37.3903 30.1872 38.3306L33.4817 40.0401L34.3061 39.9947C34.9889 39.9571 35.2168 39.8803 35.6331 39.5484C35.9228 39.3175 36.2472 38.8833 36.3992 38.5234L36.6626 37.8989L36.0185 34.1493L35.3744 30.3997L38.025 27.8457C39.4828 26.441 40.7802 25.0906 40.9081 24.845C41.4423 23.8187 40.935 22.2844 39.8774 21.7283C39.6157 21.5906 38.0546 21.3018 35.8039 20.9748L32.1547 20.4445L30.3633 16.9893C28.7247 13.8286 28.5267 13.5077 28.0411 13.2249C27.6567 13.0009 27.3092 12.9157 26.7805 12.9157C26.2518 12.9157 25.9043 13.0009 25.5199 13.2249ZM28.7046 18.1174C30.2905 21.2776 30.6347 21.8094 31.3222 22.1623C31.5211 22.2645 33.3052 22.5843 35.2869 22.873C37.2686 23.1617 38.942 23.4295 39.0057 23.4683C39.3442 23.6749 38.8977 24.2272 36.4688 26.6065C34.3868 28.6459 33.7671 29.3319 33.5877 29.7957C33.3605 30.3827 33.3632 30.4102 33.9962 34.0868C34.3466 36.122 34.5946 37.8489 34.5473 37.9245C34.3639 38.2173 33.8396 38.0068 30.728 36.3919C27.7378 34.84 27.4587 34.722 26.7805 34.722C26.1019 34.722 25.8256 34.839 22.841 36.3919C19.7465 38.0019 19.1994 38.221 19.0138 37.9245C18.9664 37.8489 19.2144 36.122 19.5649 34.0868C20.1978 30.4102 20.2005 30.3827 19.9733 29.7957C19.7939 29.3319 19.1742 28.6459 17.0922 26.6065C14.6581 24.2222 14.2165 23.6751 14.5579 23.4667C14.6231 23.4271 16.2891 23.1629 18.2604 22.8797C20.2318 22.5964 22.0147 22.2771 22.2226 22.1699C22.9457 21.7973 23.3267 21.212 24.7958 18.2181C25.6085 16.5617 26.3376 15.1299 26.4159 15.0364C26.4942 14.9429 26.6828 14.884 26.8352 14.9055C27.0528 14.9361 27.4537 15.6249 28.7046 18.1174ZM13.2917 49.3827C14.2653 49.9388 14.859 50.0226 17.6311 49.9953L20.2254 49.9697L21.3226 50.5117C21.9259 50.8098 22.449 51.1293 22.4848 51.2215C22.5516 51.3932 15.2473 64.7811 15.0869 64.7811C15.0379 64.7811 14.3325 63.8166 13.5192 62.6378C12.7059 61.4591 11.8933 60.3581 11.7133 60.1911C11.2785 59.7881 10.5245 59.6942 7.6248 59.6826C5.47869 59.6739 5.26319 59.6526 5.33936 59.4566C5.39947 59.3021 11.0295 49.0064 11.6166 47.9777C11.6492 47.9205 11.9154 48.1425 12.2084 48.4708C12.5013 48.7993 12.9888 49.2097 13.2917 49.3827Z" fill="url(#paint0_linear_1924_5703)"/>
<defs>
<linearGradient id="paint0_linear_1924_5703" x1="0.0517883" y1="0" x2="66.7582" y2="53.4841" gradientUnits="userSpaceOnUse">
<stop stop-color="#0ABD92"/>
<stop offset="1" stop-color="#009DB8"/>
</linearGradient>
</defs>
</svg>

<svg width="54" height="67" fill="none" xmlns="http://www.w3.org/2000/svg"><path fill-rule="evenodd" clip-rule="evenodd" d="M25.685.082c-.672.167-1.588.637-2.941 1.507-2.135 1.374-2.169 1.383-5.273 1.353-2.545-.024-2.745-.008-3.495.28-1.232.472-2.068 1.395-3.185 3.518-1.268 2.408-1.52 2.662-3.808 3.832-1.468.75-2.075 1.143-2.705 1.753-1.215 1.177-1.316 1.554-1.32 4.977-.005 3.172.051 2.962-1.384 5.165C.157 24.64.052 24.919.052 26.47c0 1.554.122 1.876 1.512 3.98 1.431 2.166 1.386 1.998 1.392 5.254l.005 2.816.388.828c.541 1.158 1.415 1.88 3.673 3.038 1.986 1.018 2.521 1.472 3.208 2.719l.36.652-3.715 6.744c-4.01 7.28-4.01 7.281-3.454 8.18.5.812.81.884 4.086.957l2.954.065 1.638 2.358c.942 1.355 1.824 2.482 2.075 2.652.848.571 1.94.266 2.56-.716.171-.272 1.914-3.413 3.872-6.979 1.958-3.566 3.601-6.53 3.651-6.586.05-.057.385.027.743.187.933.413 2.646.417 3.562.006.36-.16.694-.247.744-.191.049.055 1.688 3.018 3.642 6.584s3.697 6.707 3.873 6.98c.635.984 1.719 1.286 2.566.715.251-.17 1.133-1.296 2.075-2.652l1.638-2.358 2.954-.065c3.276-.073 3.585-.145 4.087-.956.5-.812.384-1.219-1.152-4.01-.777-1.411-1.502-2.669-1.613-2.795-.273-.31-1.112-.304-1.4.01-.412.45-.26.951.973 3.193.656 1.194 1.23 2.266 1.275 2.382.073.19-.17.212-2.354.219-2.852.009-3.582.102-4.026.513-.178.166-.989 1.265-1.802 2.444-.814 1.179-1.519 2.143-1.568 2.143-.16 0-7.465-13.388-7.398-13.56.036-.092.56-.411 1.163-.71l1.097-.541 2.594.025c3.415.034 4.24-.198 5.425-1.526l.534-.6.834 1.547c.956 1.774 1.265 2.136 1.823 2.136.44 0 .945-.508.945-.951 0-.144-.567-1.293-1.26-2.554l-1.259-2.293.36-.65c.685-1.245 1.222-1.7 3.197-2.713 2.254-1.156 3.043-1.804 3.634-2.99l.437-.877.002-2.818c.003-3.257-.044-3.077 1.395-5.256 1.39-2.104 1.512-2.426 1.512-3.98 0-1.553-.122-1.875-1.512-3.979-1.431-2.167-1.389-2.007-1.393-5.189-.005-3.385-.11-3.774-1.33-4.977-.627-.618-1.206-.996-2.706-1.768-2.3-1.182-2.535-1.42-3.798-3.817-1.117-2.123-1.953-3.046-3.185-3.519-.75-.287-.95-.303-3.495-.28-3.119.03-3.11.033-5.359-1.405C28.985.42 28.161.075 27.084.01c-.495-.03-1.125.002-1.399.07zm2.123 2.07c.347.13 1.346.692 2.218 1.247 2.273 1.444 2.68 1.547 5.91 1.502 3.587-.05 3.651-.012 5.272 3.102 1.23 2.364 1.949 3.06 4.518 4.374 2.89 1.477 3.035 1.728 2.895 4.99-.054 1.255-.034 2.306.053 2.75.18.926.726 2.072 1.59 3.337 1.759 2.571 1.764 3.454.033 5.987-1.574 2.303-1.803 3.14-1.675 6.132.138 3.256-.033 3.543-3.022 5.062-2.4 1.218-3.194 1.986-4.32 4.172-1.668 3.236-1.67 3.238-5.671 3.26-3.4.019-3.286-.013-5.9 1.646-2.728 1.731-3.178 1.73-5.904-.025-.803-.516-1.82-1.09-2.26-1.273-.772-.32-.911-.334-3.656-.347-2.652-.013-2.893-.034-3.418-.298-.708-.357-1.166-.976-2.19-2.963-1.132-2.198-1.929-2.968-4.316-4.173-.97-.49-1.993-1.106-2.275-1.37-.744-.7-.854-1.245-.75-3.69.127-2.993-.102-3.83-1.676-6.133-1.73-2.533-1.726-3.416.032-5.987.865-1.265 1.411-2.411 1.591-3.337.087-.444.107-1.495.053-2.75-.14-3.262.006-3.513 2.895-4.99 2.54-1.3 3.306-2.03 4.446-4.243 1.02-1.98 1.479-2.603 2.19-2.972.538-.28.691-.293 3.153-.26 3.234.044 3.655-.063 5.921-1.503 2.395-1.522 3.04-1.71 4.262-1.248zm-3.084 4.096c-4.463.46-8.702 2.344-11.818 5.255-1.048.979-1.13 1.094-1.094 1.517.051.582.583 1.017 1.09.891.19-.047.807-.502 1.372-1.012 2.527-2.277 5.43-3.724 8.924-4.447 1.802-.373 4.907-.411 6.73-.082 2.594.468 5.307 1.562 7.445 3.002 2.213 1.49 4.798 4.437 6.057 6.904 2.034 3.99 2.478 8.927 1.196 13.302-1.424 4.86-4.97 9.042-9.598 11.324-1.44.71-3.482 1.379-5.063 1.659-1.68.298-4.683.296-6.37-.004-6.58-1.17-12.119-5.783-14.325-11.93-.99-2.76-1.317-6.081-.875-8.907.273-1.752 1.056-4.139 1.863-5.681.644-1.23.74-1.814.356-2.157-.322-.288-1.118-.28-1.385.012-.366.4-1.53 2.82-1.94 4.035-.803 2.372-.999 3.655-.999 6.541 0 2.234.044 2.823.302 3.995.843 3.847 2.65 7.251 5.293 9.969 3.262 3.354 7.17 5.373 11.91 6.152 1.193.196 4.769.197 5.971.002 4.744-.771 8.688-2.817 11.94-6.193 2.664-2.765 4.413-6.077 5.274-9.987.245-1.11.291-1.731.291-3.938 0-2.229-.045-2.824-.3-3.994-1.094-5.007-3.845-9.265-7.954-12.31-4.069-3.016-9.254-4.437-14.293-3.918zm.796 6.977c-.486.283-.683.603-2.322 3.765l-1.792 3.456-3.649.528c-2.27.33-3.81.614-4.073.753-1.06.56-1.566 2.094-1.03 3.118.13.246 1.427 1.596 2.883 3l2.65 2.555-.645 3.75-.644 3.749.264.624c.387.918 1.065 1.407 2.044 1.477.868.062.966.02 5.452-2.332 1.1-.576 2.051-1.047 2.116-1.047.066 0 1.601.77 3.413 1.71l3.295 1.71.824-.046c.683-.038.91-.115 1.327-.447.29-.23.614-.665.766-1.025l.264-.624-.644-3.75-.645-3.75 2.651-2.553c1.458-1.405 2.755-2.755 2.883-3.001.534-1.026.027-2.56-1.03-3.117-.262-.137-1.823-.426-4.074-.753l-3.65-.53-1.79-3.456c-1.64-3.16-1.837-3.481-2.323-3.764-.384-.224-.732-.31-1.26-.31-.53 0-.877.086-1.261.31zm3.185 4.892c1.586 3.16 1.93 3.692 2.617 4.045.2.103 1.983.422 3.965.711 1.982.289 3.655.556 3.719.595.338.207-.108.76-2.537 3.139-2.082 2.039-2.702 2.725-2.881 3.189-.227.587-.225.614.408 4.29.35 2.036.599 3.763.551 3.839-.183.292-.707.082-3.819-1.533-2.99-1.552-3.27-1.67-3.948-1.67-.678 0-.954.117-3.939 1.67-3.095 1.61-3.642 1.829-3.827 1.532-.048-.075.2-1.802.55-3.837.634-3.677.637-3.704.41-4.291-.18-.464-.8-1.15-2.882-3.19-2.434-2.384-2.875-2.93-2.534-3.14.065-.039 1.731-.303 3.702-.586 1.972-.284 3.755-.603 3.963-.71.723-.373 1.104-.958 2.573-3.952.813-1.656 1.542-3.088 1.62-3.182.078-.093.267-.152.42-.13.217.03.618.719 1.869 3.211zM13.292 49.383c.973.556 1.567.64 4.34.612l2.593-.025 1.098.542c.603.298 1.126.617 1.162.71.067.171-7.238 13.56-7.398 13.56-.05 0-.755-.965-1.568-2.144-.813-1.179-1.626-2.28-1.806-2.447-.434-.403-1.188-.497-4.088-.508-2.146-.01-2.362-.03-2.286-.226.06-.155 5.69-10.45 6.278-11.48.032-.056.298.166.591.494.293.328.78.739 1.084.912z" fill="url(#paint0_linear_1924_5703)"/><defs><linearGradient id="paint0_linear_1924_5703" x1=".052" y1="0" x2="66.758" y2="53.484" gradientUnits="userSpaceOnUse"><stop stop-color="#0ABD92"/><stop offset="1" stop-color="#009DB8"/></linearGradient></defs></svg>
